react/features/base/icons/svg/AUD.svg

<!-- Generated by IcoMoon.io -->
<svg version="1.1" xmlns="http://www.w3.org/2000/svg" width="32" height="32" viewBox="0 0 32 32">
<title>AUD</title>
<path d="M16 32c-8.837 0-16-7.163-16-16s7.163-16 16-16c8.837 0 16 7.163 16 16s-7.163 16-16 16zM9.633 19.897h1.788l-2.74-7.891h-1.941l-2.74 7.891h1.657l0.607-1.881h2.773l0.596 1.881zM14.434 12.005h-1.652v5.168c0 1.75 1.285 2.926 3.303 2.926 2.023 0 3.309-1.176 3.309-2.926v-5.168h-1.652v4.998c0 0.995-0.596 1.63-1.657 1.63-1.055 0-1.652-0.634-1.652-1.63v-4.998zM21.32 12v7.897h3.106c2.363 0 3.702-1.438 3.702-4.003 0-2.472-1.356-3.894-3.702-3.894h-3.106zM22.971 13.411v5.075h1.192c1.46 0 2.28-0.897 2.28-2.565 0-1.597-0.848-2.51-2.28-2.51h-1.192zM7.609 13.646l-0.99 3.095h2.067l-0.979-3.095h-0.098z"></path>
</svg>

<svg xmlns="http://www.w3.org/2000/svg" width="32" height="32" viewBox="0 0 32 32"><g transform="translate(-150 -599)"><rect width="32" height="32" transform="translate(150 599)" fill="none"/><path d="M16,32A16,16,0,1,1,32,16,16,16,0,0,1,16,32ZM9.633,19.9h1.788l-2.74-7.891H6.74L4,19.9H5.657l.607-1.881H9.037Zm4.8-7.892H12.782v5.168c0,1.75,1.285,2.926,3.3,2.926s3.309-1.176,3.309-2.926V12.005H17.742v5a1.511,1.511,0,0,1-1.657,1.63A1.51,1.51,0,0,1,14.433,17v-5ZM21.32,12v7.9h3.106c2.363,0,3.7-1.438,3.7-4,0-2.472-1.356-3.894-3.7-3.894H21.32Zm1.651,1.411v5.075h1.192c1.46,0,2.28-.9,2.28-2.565a2.194,2.194,0,0,0-2.28-2.51H22.971Zm-15.362.235-.99,3.095H8.686l-.979-3.1h-.1Z" transform="translate(150 599)"/></g></svg>
